X:283
T: Nchtliches Abenteuer (42d), S. 138
N: T0172
O: Luxemburg
S: Singendes Volk, Esch-Alzette 1937 posth.]
N: Heffingen, hhh Nikolaus Ewen, 9.9.1934
R: Liebeslieder]
M: 2/4
L: 1/16
K: F
A2 | A2G2A2B2 | c2z4
A2 | A2G2A2B2 | c2B2A2
A2 | A2G2A2B2 | c4
d4 | A2A2A2A2 | c2G2G4
GGGABBcc | d2c2c2
A2 | c2ccc2B2 | e2e2e2
c2 | c2ccB2B2 | A4z2

